synths/sTRX.svg

<svg width="42" height="42" viewBox="0 0 42 42" fill="none" xmlns="http://www.w3.org/2000/svg">
<g clip-path="url(#clip0_7277_57889)">
<mask id="mask0_7277_57889" style="mask-type:alpha" maskUnits="userSpaceOnUse" x="0" y="0" width="42" height="42">
<circle cx="21" cy="21" r="21" fill="url(#paint0_linear_7277_57889)"/>
</mask>
<g mask="url(#mask0_7277_57889)">
<circle cx="21" cy="21" r="21" fill="#34EDB3"/>
<circle cx="21" cy="21" r="18.2" fill="white"/>
</g>
<circle cx="21" cy="21" r="16.1" fill="#06061B"/>
<g clip-path="url(#clip1_7277_57889)">
<path d="M21 37.2676C29.9844 37.2676 37.2676 29.9844 37.2676 21C37.2676 12.0157 29.9844 4.73242 21 4.73242C12.0157 4.73242 4.73242 12.0157 4.73242 21C4.73242 29.9844 12.0157 37.2676 21 37.2676Z" fill="black"/>
<path d="M29.8913 17.2035C29.0789 16.627 28.2096 16.0119 27.3596 15.4018C27.3403 15.3876 27.322 15.3734 27.2986 15.3591C27.199 15.2773 27.0863 15.2131 26.9651 15.169L26.955 15.1639C24.6806 14.6058 22.4069 14.0453 20.1338 13.4823L14.0497 11.9806L13.8901 11.9379C13.707 11.886 13.4956 11.828 13.2699 11.8565C13.208 11.866 13.149 11.8889 13.097 11.9236L13.0401 11.9714C12.9688 12.0445 12.9143 12.1323 12.8804 12.2286L12.8662 12.2673V12.4859L12.8764 12.5194C14.1575 16.1644 15.4731 19.8622 16.742 23.4401C17.719 26.1954 18.7348 29.0483 19.725 31.8504C19.786 32.0406 19.9599 32.1656 20.1765 32.1839H20.2232C20.3179 32.1863 20.4114 32.1633 20.494 32.1171C20.5767 32.071 20.6454 32.0034 20.693 31.9216L24.4142 26.4181C25.3201 25.079 26.227 23.7359 27.1339 22.3969L28.2472 20.7478C28.8573 19.8429 29.4876 18.9085 30.1129 17.9986L30.1455 17.9518V17.8938C30.1597 17.7271 30.1638 17.3845 29.8913 17.2025V17.2035ZM25.5316 19.2095C24.6572 19.6711 23.7655 20.1479 22.8677 20.6197L24.4376 18.9136C25.0903 18.1988 25.7715 17.4597 26.4385 16.7358L26.4527 16.7215C26.5086 16.6453 26.5798 16.5741 26.655 16.4979C26.7059 16.446 26.7628 16.3931 26.8147 16.3311C27.1624 16.5751 27.5142 16.8222 27.8527 17.0652C28.0968 17.2411 28.3459 17.418 28.6 17.5939C27.5737 18.1256 26.5508 18.6642 25.5316 19.2095V19.2095ZM23.2866 18.9807C22.6146 19.7189 21.9191 20.4763 21.2288 21.2246C19.8889 19.576 18.5452 17.9306 17.1975 16.2884L15.3887 14.0821L15.3846 14.077C15.2484 13.9205 15.1162 13.7486 14.9851 13.587C14.9007 13.4772 14.8112 13.3725 14.7217 13.2626C15.2667 13.405 15.8167 13.5392 16.3566 13.6673C16.8314 13.7822 17.3246 13.9011 17.8085 14.0252L25.9881 16.0403C25.0812 17.0225 24.1691 18.0179 23.2866 18.9807V18.9807ZM20.9227 28.2675C20.9746 27.7673 21.0315 27.2528 21.0783 26.7475C21.121 26.3418 21.1627 25.928 21.2054 25.5325C21.2705 24.8981 21.3416 24.2412 21.3986 23.5977L21.4118 23.4838C21.4586 23.073 21.5053 22.6501 21.5338 22.2251C21.5885 22.1942 21.6452 22.167 21.7036 22.1437C21.7737 22.1112 21.8439 22.0827 21.9141 22.04C22.9992 21.4617 24.0861 20.8866 25.1747 20.3147C26.2606 19.7433 27.3739 19.1515 28.478 18.5659C27.4761 20.0373 26.4784 21.5116 25.4848 22.9886C24.644 24.2311 23.7797 25.5132 22.9196 26.7759C22.582 27.2813 22.2292 27.7957 21.8957 28.2909C21.5196 28.844 21.1342 29.4103 20.759 29.9786C20.8058 29.4062 20.8617 28.8297 20.9227 28.2675V28.2675ZM14.375 14.3871C14.314 14.2153 14.2469 14.0394 14.191 13.8727C15.4599 15.4262 16.7369 16.9889 17.9824 18.5039C18.626 19.2898 19.2695 20.0717 19.9131 20.8627C20.0402 21.0101 20.1673 21.1677 20.2893 21.3202C20.4489 21.5154 20.6086 21.7208 20.7824 21.916C20.7255 22.4061 20.6787 22.9022 20.6269 23.378C20.5943 23.7115 20.5618 24.046 20.5242 24.3846V24.3887C20.51 24.6022 20.4815 24.8177 20.4581 25.0272L20.3503 25.9758L20.3452 26.0083C20.2609 26.9712 20.1571 27.9431 20.0585 28.8867C20.0168 29.2771 19.9792 29.6777 19.9365 30.0783C19.9131 30.0071 19.8857 29.9349 19.8613 29.8678C19.7897 29.6736 19.7208 29.4784 19.6549 29.2822L19.1516 27.8669L14.374 14.3871" fill="white"/>
</g>
</g>
<defs>
<linearGradient id="paint0_linear_7277_57889" x1="21" y1="0" x2="21" y2="61.4091" gradientUnits="userSpaceOnUse">
<stop stop-color="#08021E"/>
<stop offset="1" stop-color="#1F0777"/>
</linearGradient>
<clipPath id="clip0_7277_57889">
<rect width="42" height="42" fill="white"/>
</clipPath>
<clipPath id="clip1_7277_57889">
<rect width="32.5352" height="32.5352" fill="white" transform="translate(4.73242 4.73242)"/>
</clipPath>
</defs>
</svg>

<svg xmlns="http://www.w3.org/2000/svg" width="42" height="42" fill="none"><g clip-path="url(#a)"><mask id="c" width="42" height="42" x="0" y="0" maskUnits="userSpaceOnUse" style="mask-type:alpha"><circle cx="21" cy="21" r="21" fill="url(#b)"/></mask><g mask="url(#c)"><circle cx="21" cy="21" r="21" fill="#34EDB3"/><circle cx="21" cy="21" r="18.2" fill="#fff"/></g><circle cx="21" cy="21" r="16.1" fill="#06061B"/><g clip-path="url(#d)"><path fill="#000" d="M21 37.268c8.984 0 16.268-7.284 16.268-16.268 0-8.984-7.284-16.268-16.268-16.268-8.984 0-16.268 7.284-16.268 16.268 0 8.984 7.284 16.268 16.268 16.268Z"/><path fill="#fff" d="M29.891 17.203c-.812-.576-1.681-1.191-2.531-1.801-.02-.014-.038-.029-.061-.043a1.139 1.139 0 0 0-.334-.19l-.01-.005a3245.82 3245.82 0 0 1-6.821-1.682l-6.084-1.501-.16-.043c-.183-.052-.394-.11-.62-.082a.429.429 0 0 0-.173.068l-.057.047a.702.702 0 0 0-.16.258l-.014.038v.219l.01.033c1.282 3.645 2.597 7.343 3.866 10.921.977 2.755 1.993 5.608 2.983 8.41.061.19.235.316.451.334h.047a.527.527 0 0 0 .47-.262l3.721-5.504c.906-1.339 1.813-2.682 2.72-4.021l1.113-1.65c.61-.904 1.24-1.838 1.866-2.748l.032-.047v-.058c.015-.167.019-.51-.254-.691Zm-4.36 2.006c-.874.462-1.765.939-2.663 1.41l1.57-1.705c.652-.715 1.334-1.454 2-2.178l.015-.015c.056-.076.127-.147.202-.223.05-.052.108-.105.16-.167.347.244.7.491 1.038.734.244.176.493.353.747.529-1.026.532-2.05 1.07-3.068 1.615Zm-2.244-.228c-.672.738-1.368 1.495-2.058 2.244-1.34-1.649-2.684-3.294-4.031-4.937l-1.81-2.206-.003-.005c-.137-.156-.269-.328-.4-.49-.084-.11-.174-.214-.263-.324.545.142 1.095.276 1.635.404.474.115.968.234 1.451.358l8.18 2.015c-.907.983-1.819 1.978-2.701 2.94Zm-2.364 9.286c.052-.5.109-1.014.155-1.52l.127-1.215c.066-.634.137-1.29.194-1.934l.013-.114c.047-.411.093-.834.122-1.259a1.4 1.4 0 0 1 .17-.081c.07-.033.14-.061.21-.104a621.905 621.905 0 0 1 3.26-1.725c1.087-.572 2.2-1.164 3.304-1.75-1.002 1.472-2 2.947-2.993 4.424-.841 1.242-1.705 2.524-2.565 3.787-.338.505-.69 1.02-1.024 1.515-.376.553-.762 1.12-1.137 1.688.047-.573.103-1.15.164-1.712Zm-6.548-13.88c-.061-.172-.128-.348-.184-.514 1.269 1.553 2.546 3.116 3.791 4.63.644.787 1.288 1.569 1.931 2.36.127.147.254.305.376.457.16.195.32.4.493.596-.056.49-.103.986-.155 1.462-.033.334-.065.668-.103 1.007v.004c-.014.213-.043.429-.066.638l-.108.949-.005.032c-.084.963-.188 1.935-.287 2.879-.041.39-.079.79-.122 1.191-.023-.07-.05-.143-.075-.21-.071-.194-.14-.39-.206-.586l-.503-1.415-4.778-13.48"/></g></g><defs><clipPath id="a"><path fill="#fff" d="M0 0h42v42H0z"/></clipPath><clipPath id="d"><path fill="#fff" d="M4.732 4.732h32.535v32.535H4.732z"/></clipPath><linearGradient id="b" x1="21" x2="21" y1="0" y2="61.409" gradientUnits="userSpaceOnUse"><stop stop-color="#08021E"/><stop offset="1" stop-color="#1F0777"/></linearGradient></defs></svg>
